src/assets/icon.svg

<?xml version="1.0" encoding="UTF-8"?>
<svg width="512px" height="512px" viewBox="0 0 512 512" version="1.1" xmlns="http://www.w3.org/2000/svg" xmlns:xlink="http://www.w3.org/1999/xlink">
    <!-- Generator: Sketch 63.1 (92452) - https://sketch.com -->
    <title>Icon Squircle Small</title>
    <desc>Created with Sketch.</desc>
    <defs>
        <linearGradient x1="50%" y1="0.522592905%" x2="50%" y2="100%" id="linearGradient-1">
            <stop stop-color="#BB99FF" offset="0%"></stop>
            <stop stop-color="#A485E2" offset="100%"></stop>
        </linearGradient>
        <filter x="-27.4%" y="-30.0%" width="154.9%" height="160.0%" filterUnits="objectBoundingBox" id="filter-2">
            <feOffset dx="0" dy="10" in="SourceAlpha" result="shadowOffsetOuter1"></feOffset>
            <feGaussianBlur stdDeviation="20" in="shadowOffsetOuter1" result="shadowBlurOuter1"></feGaussianBlur>
            <feColorMatrix values="0 0 0 0 0   0 0 0 0 0   0 0 0 0 0  0 0 0 0.3 0" type="matrix" in="shadowBlurOuter1" result="shadowMatrixOuter1"></feColorMatrix>
            <feMerge>
                <feMergeNode in="shadowMatrixOuter1"></feMergeNode>
                <feMergeNode in="SourceGraphic"></feMergeNode>
            </feMerge>
        </filter>
    </defs>
    <g id="Icon-Squircle-Small" stroke="none" stroke-width="1" fill="none" fill-rule="evenodd">
        <rect id="Rectangle" fill="url(#linearGradient-1)" x="52" y="52" width="408" height="408" rx="88"></rect>
        <g id="Group-6" filter="url(#filter-2)" transform="translate(81.000000, 96.000000)" fill="#FFFFFF">
            <path d="M168.360078,42.8929656 C166.079388,50.4271884 175.199759,40.1037235 172.805782,35.2193222 C170.411805,30.3349209 179.658677,39.4389 177.88126,45.233467 C176.103843,51.028034 185.060117,43.5644812 183.610969,39.3919017 C182.163102,35.2230115 190.460702,42.8999061 188.080842,47.7708782 L195.607965,47.7707112 C212.111958,47.7707112 247.45535,54.6498752 265.475855,98.5882532 C264.222712,101.644908 263.922359,105.117333 264.836749,108.551669 L285.427559,185.888224 C287.639489,194.195961 296.167364,199.13759 304.475101,196.92566 C304.491057,196.921412 304.507005,196.917138 304.522946,196.912839 L304.653402,196.876114 C310.290285,215.382809 310.548427,232.862874 304.81864,248.055053 C283.757479,304.109475 197.598821,319.56697 174.442022,319.986854 C134.048602,320.669164 61.092462,294.767072 44.0654043,248.055053 C38.5006561,232.71479 38.6989612,215.205966 44.3514244,196.621977 C44.6665637,196.728356 44.9857581,196.825382 45.3100839,196.912839 C45.3260254,196.917138 45.3419738,196.921412 45.3579289,196.92566 C53.5618194,199.10994 61.9803788,194.318384 64.319576,186.198179 L64.4054712,185.888224 L84.9962812,108.551669 C86.0201084,104.706299 85.521023,100.813178 83.8690886,97.513279 C101.865284,55.0006577 136.209363,47.9208974 152.792374,47.77311 L153.328471,47.7707112 L158.538,47.77 L158.758501,47.3720171 C162.640031,40.2745418 163.582149,35.2650099 161.584857,32.3434213 C158.531305,27.8767618 170.640769,35.3587429 168.360078,42.8929656 Z M174.201952,181.93653 C163.764491,181.878878 135.742389,201.125816 131.506087,207.689437 C126.63479,215.236903 126.63479,227.473762 131.506087,235.021227 C133.367617,237.905436 144.252261,238.413533 151.304262,246.289144 C161.978984,258.210576 170.695098,276.972402 174.233072,275.49005 C177.769117,276.973049 186.480008,258.202548 197.148334,246.275603 C204.19611,238.39635 215.074232,237.888018 216.934647,235.002476 C221.803024,227.45152 221.803024,215.209003 216.934647,207.658048 C212.698329,201.08743 184.627397,181.846734 174.201952,181.93653 Z M241.589789,121.222299 C225.162049,121.222299 220.616043,133.791215 220.616043,150.403481 C220.616043,167.015748 225.162049,181.237621 241.589789,181.237621 C258.01753,181.237621 267.111262,167.015748 267.111262,150.403481 C267.111262,133.791215 258.01753,121.222299 241.589789,121.222299 Z M111.122553,121.222299 C94.6948128,121.222299 85.6010802,133.791215 85.6010802,150.403481 C85.6010802,167.015748 94.6948128,181.237621 111.122553,181.237621 C127.550294,181.237621 132.096299,167.015748 132.096299,150.403481 C132.096299,133.791215 127.550294,121.222299 111.122553,121.222299 Z" id="Combined-Shape"></path>
            <path d="M174.903771,0 C219.501952,0 261.425669,17.2639814 292.949476,47.6131593 C296.63418,51.1605653 297.958895,56.2392256 296.885742,60.8864981 C307.346753,72.4921385 316.168745,85.6002429 322.9881,99.8471211 C335.095766,105.125859 344.780101,115.706488 348.462016,129.513887 C354.86722,153.534042 340.681128,178.223772 316.776462,184.659958 C292.871792,191.09613 269.676378,104.111484 293.581038,97.6752734 C297.197378,96.7016023 300.828968,96.2014631 304.410607,96.13703 C299.292376,87.2567504 293.281787,78.9540045 286.502348,71.3493775 C282.013774,72.4239015 277.092164,71.2578811 273.521164,67.8199415 C247.165759,42.4465821 212.182132,28.040496 174.903771,28.040496 C137.159283,28.040496 101.778363,42.8136684 75.3452199,68.7343113 L74.5469612,69.5231937 C71.0758066,72.9803015 66.2480498,74.241031 61.7874119,73.3094456 C55.7017047,80.3712152 50.2717647,88.0125605 45.587331,96.1365291 C49.1710321,96.2014631 52.8026223,96.7016023 56.4189622,97.6752734 C80.3236218,104.111484 57.1282084,191.09613 33.2235383,184.659958 C9.31887203,178.223772 -4.86722024,153.534042 1.53798405,129.513887 C5.21969606,115.707248 14.9031674,105.127024 27.0120764,99.8479783 C33.3902146,86.5211754 41.5221524,74.1897475 51.1087883,63.1522831 C49.8868238,58.4827486 51.1110293,53.3021271 54.7790859,49.6489142 C86.493947,18.0623948 129.290888,0 174.903771,0 Z" id="Combined-Shape"></path>
            <path d="M115.727273,155.454545 C119.743889,155.454545 123,158.710656 123,162.727273 C123,166.743889 119.743889,170 115.727273,170 C111.710656,170 108.454545,166.743889 108.454545,162.727273 C108.454545,158.710656 111.710656,155.454545 115.727273,155.454545 Z M106.636364,150 C108.644672,150 110.272727,151.628055 110.272727,153.636364 C110.272727,155.644672 108.644672,157.272727 106.636364,157.272727 C104.628055,157.272727 103,155.644672 103,153.636364 C103,151.628055 104.628055,150 106.636364,150 Z" id="Combined-Shape"></path>
            <path d="M251.727273,155.454545 C255.743889,155.454545 259,158.710656 259,162.727273 C259,166.743889 255.743889,170 251.727273,170 C247.710656,170 244.454545,166.743889 244.454545,162.727273 C244.454545,158.710656 247.710656,155.454545 251.727273,155.454545 Z M242.636364,150 C244.644672,150 246.272727,151.628055 246.272727,153.636364 C246.272727,155.644672 244.644672,157.272727 242.636364,157.272727 C240.628055,157.272727 239,155.644672 239,153.636364 C239,151.628055 240.628055,150 242.636364,150 Z" id="Combined-Shape"></path>
        </g>
    </g>
</svg>

<svg width="512" height="512" xmlns="http://www.w3.org/2000/svg"><defs><linearGradient x1="50%" y1=".523%" x2="50%" y2="100%" id="a"><stop stop-color="#B9F" offset="0%"/><stop stop-color="#A485E2" offset="100%"/></linearGradient><filter x="-27.4%" y="-30%" width="154.9%" height="160%" filterUnits="objectBoundingBox" id="b"><feOffset dy="10" in="SourceAlpha" result="shadowOffsetOuter1"/><feGaussianBlur stdDeviation="20" in="shadowOffsetOuter1" result="shadowBlurOuter1"/><feColorMatrix values="0 0 0 0 0 0 0 0 0 0 0 0 0 0 0 0 0 0 0.3 0" in="shadowBlurOuter1" result="shadowMatrixOuter1"/><feMerge><feMergeNode in="shadowMatrixOuter1"/><feMergeNode in="SourceGraphic"/></feMerge></filter></defs><g fill="none" fill-rule="evenodd"><rect fill="url(#a)" x="52" y="52" width="408" height="408" rx="88"/><g filter="url(#b)" transform="translate(81 96)" fill="#FFF"><path d="M168.36 42.893c-2.28 7.534 6.84-2.79 4.446-7.674s6.853 4.22 5.075 10.014c-1.777 5.795 7.18-1.669 5.73-5.841-1.448-4.169 6.85 3.508 4.47 8.379h7.527c16.504 0 51.847 6.879 69.868 50.817a15.596 15.596 0 0 0-.64 9.964l20.592 77.336c2.211 8.308 10.74 13.25 19.047 11.038l.048-.013.13-.037c5.637 18.507 5.895 35.987.166 51.18-21.062 56.053-107.22 71.511-130.377 71.93-40.393.683-113.35-25.219-130.377-71.93-5.564-15.341-5.366-32.85.286-51.434a16.108 16.108 0 0 0 1.007.304c8.204 2.184 16.622-2.608 18.962-10.728l.085-.31 20.591-77.336a15.607 15.607 0 0 0-1.127-11.039c17.996-42.512 52.34-49.592 68.923-49.74l.536-.002 5.21-.001.22-.398c3.882-7.097 4.824-12.107 2.827-15.029-3.054-4.466 9.056 3.016 6.775 10.55Zm5.842 139.044c-10.438-.058-38.46 19.189-42.696 25.752-4.871 7.548-4.871 19.785 0 27.332 1.862 2.884 12.746 3.393 19.798 11.268 10.675 11.922 19.391 30.683 22.93 29.201 3.535 1.483 12.246-17.287 22.914-29.214 7.048-7.88 17.926-8.388 19.787-11.274 4.868-7.55 4.868-19.793 0-27.344-4.237-6.57-32.308-25.811-42.733-25.721Zm67.388-60.715c-16.428 0-20.974 12.57-20.974 29.181 0 16.613 4.546 30.835 20.974 30.835s25.521-14.222 25.521-30.835c0-16.612-9.093-29.18-25.521-29.18Zm-130.467 0c-16.428 0-25.522 12.57-25.522 29.181 0 16.613 9.094 30.835 25.522 30.835 16.427 0 20.973-14.222 20.973-30.835 0-16.612-4.546-29.18-20.973-29.18Z"/><path d="M174.904 0c44.598 0 86.522 17.264 118.045 47.613 3.685 3.548 5.01 8.626 3.937 13.273a163.912 163.912 0 0 1 26.102 38.961c12.108 5.279 21.792 15.86 25.474 29.667 6.405 24.02-7.78 48.71-31.686 55.146-23.904 6.436-47.1-80.549-23.195-86.985a44.707 44.707 0 0 1 10.83-1.538 149.28 149.28 0 0 0-17.909-24.788 13.986 13.986 0 0 1-12.98-3.53c-26.356-25.372-61.34-39.779-98.618-39.779-37.745 0-73.126 14.774-99.559 40.694l-.798.79a13.993 13.993 0 0 1-12.76 3.785 148.934 148.934 0 0 0-16.2 22.828c3.584.064 7.216.565 10.832 1.538 23.905 6.436.71 93.421-23.195 86.985-23.905-6.436-38.091-31.126-31.686-55.146 3.682-13.807 13.365-24.387 25.474-29.666A163.845 163.845 0 0 1 51.11 63.152c-1.222-4.67.002-9.85 3.67-13.503C86.494 18.062 129.291 0 174.904 0Z"/><path d="M115.727 155.455a7.273 7.273 0 1 1 0 14.545 7.273 7.273 0 0 1 0-14.545Zm-9.09-5.455a3.636 3.636 0 1 1 0 7.273 3.636 3.636 0 0 1 0-7.273ZM251.727 155.455a7.273 7.273 0 1 1 0 14.545 7.273 7.273 0 0 1 0-14.545Zm-9.09-5.455a3.636 3.636 0 1 1 0 7.273 3.636 3.636 0 0 1 0-7.273Z"/></g></g></svg>
